X:1
T:O never say that I was false of heart
T:O never say that I was false of heart
T:Copyright © CPDL 
T:Copyright © CPDL 
T:Copyright © CPDL 
T:Copyright © CPDL 
T:Copyright © CPDL 
Z:Copyright © CPDL
%%score 1 { ( 2 3 ) ( 4 5 ) }
L:1/8
Q:1/4=92
M:3/4
K:Eb
V:1 treble nm="Soprano"
V:2 treble nm="          Piano" snm=" "
V:3 treble 
V:4 bass nm=" " snm=" "
V:5 bass 
V:1
"^Editor: John Henry Fowler""^(  Revision:   11 - 14 - 2008  )""^Lento""^From \"English Lyrics\" -  Set 7 -  Number 4 - Dedicated to Parry's wife" z6 | %1
w: |
"^Words by William Shakespeare""^From Sonnet No. 109" z6 |"^Charles Hubert Hastings Parry" z6 | %3
w: ||
"^( 1848 - 1918 )" z6 | z2 z!p! e FG | A3"^cresc. molto" G =Be | !>!d>c G3!mf! G | DE Gc de | %8
w: |O nev- er|say that I was|false of heart, Though|ab- sence seem'd my flame to|
 B>c A2 z c |!<(! BA!<)! e!>(!c B!>)!G | F>G EG!<(! =A!<)!B | D z/"^rit." F/ GB !fermata!d>F | %12
w: qual- i- fy. As|ea- sy might I from my|\-~self de- part, As from my|soul, which in thy breast doth|
 F4 z2 | z6 |!p! z"^Più mosso"!<(! G =A!<)!=B!>(! e>!>)!d | G2 z!<(! E G!<)!c | c z/ B/ GE !>!BA | %17
w: lie:||That is my home of|love: if I have|ranged, Like him that tra- vels,|
 z2 GB !>!_d>F | E4!f! z2 |"^poco animando" !>!e2 c>A _G2- | GF =Ac e>_d | _d4 z2 | %22
w: I re- turn a-|gain;|Just to the time,|_ not with the time ex-|changed,|
!mf! z B ce"^dim." _G2- | GF =AB c>_E | _D6 | z6 | z2!mf! z e FG | _A3!<(! G =B!<)!e | d>c G3 F | %29
w: So that my- self|_ bring wa- ter for my|stain.||Nev- er be-|lieve, though in my|na- ture reign'd All|
 DE!<(! G>c d!<)!e | _B>c A z/"^cresc." A/ GF |!f! !>!e>c !>!B!>!G !>!F!>!E | !>!D3 C GB | %33
w: frail- ties that be- seige all|kinds of blood, that it could|so pre- pos- t'rous- ly be|stain'd, To leave for|
 D<!<(!F GB d>!<)!F | F4 z2 | z6 | z!f!"^allargando"!<(! _G _d<B A!<)!G | !>!_f>e!>(! _cA!>)! _G2 | %38
w: no- thing all thy sum of|good;||For no- thing this wide|u- ni- verse I call,|
 z"^Più lento"!p!!<(! F!<)! !fermata!=d3 c | D2 z!p! F A2- | A"^rit."!<(!G F3!<)!!>)!!>(! B, | %41
w: Save thou, my|rose; in it|_ thou art my|
"^a tempo"!<(! B6-!<)! | B2 z2 z2 | z6 | z6 |] %45
w: all.|_|||
V:2
"^largemente" (([B,E-B]2 [=B,E=B])) z [CA-c]2 | [_DA_d] z (!>![Gdg]2 [Fdf]) z/ .B/ | %2
 ([_DG=B]2 [CAc]) z z .E | (([_DG_B]2 [_CF_c])) z z2 | z6 | z (!>![CA] !>![=B,D]2) [FG]2 | %6
 z (!>![EGe] !>![DF=B])[CEc] G2- | F2 z (G [F=Bd][Ece]) | ([_B,=EG][A,FA]) z (F [Ac]2-) | %9
 [Ac]2 (.[CEc]2 .[B,EB]2) | z ([A,CD] [A,CE]2) [G,B,E]2 |"^rit." (D3 B,) (!fermata!D2 | %12
"^a tempo" F2) z[K:treble]!f! ([Bfb] [=Ae=a][eae']) | x2 b2 _a2 | [Gdfg]2 z2 [=B,FG]2 | %15
 z ([EG] [DF=B][CEc] [Ece][Gg]) | ([cfc']>[Bb] [Ee]) z z [Aa] | %17
 (!>![A_da]>[Gg] [_Dd]2) z !tenuto![Fdf] | z ([=A,E=A] [B,B][_D_d] [GBg]>[Ff]) | %19
 [Ece]2 z [A,EA] [B,E_G]2- | (GF) z (F [=A,F=A][Cc]) | ([CFc][B,B] F)[_DFB] .[FB_d].[Bdf] | %22
 ([_dfb]2 [cea]2 [Bd_g-]2) | (gf) z2 [F=Ac]2 | ([B_d_g]2 [A_cf]2 [Gc-e-]2) | %25
 ([Fce]_d) z2 [EF_c]2- | [EFc]2 .[_CEF]2 z2 | z ([=CA] [=B,D]2) z2 | z d =Bc G2- | %29
 G2 z (G [F=Bd][Ece]) | z (=B,/4C/4F/4A/4- [Ac]3) F | ([EAe][Cc] [B,B]2) z E | %32
 (BG E) z z[K:bass] E | [B,D]2 D2 =A,2- | ([E,A,][D,B,])[K:treble] z ([Bfb] [=Ae=a][eae']) | %35
 ([dbd'][gg'] [ff'])([cc'] [d_c'd'][ebe']) | [B_fb] B,/4_F/4_G/4B/4"^L.H." f2 [B,FG]2- | %37
 (G2 [E_G_c]2) ([E-G]2 | [EF]2) (F4 | [DF]2) z2 [CA-]2 | (A"^rit."G) z ([F,CF] [F,_CE][A,_B,D]) | %41
"^a tempo" (([B,E-B]2 [CEc])) z (([_DB_d]2 | [=DA=d])) z (([cdfc']3 [Bb])) | !>![gbg']6- | %44
 [gbg']4 z2 |] %45
V:3
 x6 | x6 | x6 | x6 | x6 | x6 | x4 (E[DF]) | ([=B,D][CE]) x2 x2 | x6 | x6 | x6 | %11
 [F,B,]2 [=E,G,]2 [_E,=A,]2 | ([E,C][D,B,]) x[K:treble] x3 | %13
 ([dbd'][gg'] [ff'])([cc'] [^A^c'][Bd']) | x6 | x6 | x5 x | x6 | x6 | x6 | [CE]2 x2 x2 | x6 | x6 | %23
 [=Ac] x x2 x2 | x6 | x6 | x6 | x6 | x ([EG] [DF][CE]) (E[DF]) | ([=B,D][CE]) x2 x2 | x6 | x6 | %32
 [B,-E]2 [G,B,] x x[K:bass] [G,B,] | F,2 [=E,G,]2 _E,2- | x2[K:treble] x4 | x6 | x6 | %37
 [B,F][_CE] x2 CB, | =A,2 ([G,B,]2 [A,C]2 | _A,2) x2 FE | [=B,D]2 x2 x2 | x6 | x6 | x6 | x6 |] %45
V:4
!mf! (([G,,B,,-G,]2"^cresc" [_G,,B,,_G,])) z [F,,-B,,-F,]2 | %1
 [_F,,B,,_F,]!f! z ([E,,,E,,]>B,, E,/G,/!>)!!>(!_D) |!p! ([A,,,A,,]>E, A,).E"^dim." z2 | %3
!>(! ([A,,,A,,]>E,!>)! A,)!>!E- E2- | E2 z2 z2 | z!p! !>![F,,D,-] [G,,D,F,]2 [G,=B,]2 | %6
!f! [C,,C,]^F,,/4G,,/4C,/4E,/4!>(! G,2!>)! z2 | [E,,E,]2 z2 [C,,C,]2 | [F,,C,]2 z (F, [A,C]2-) | %9
 [A,C]2 (.[F,,A,]2 .[G,,E,]2) | [C,,C,]4!p! C,2 | [F,,,F,,]4 F,,2 | %12
 (B,,,/>F,,/=A,,/4B,,/4D,/4F,/4) D>_D[K:treble]!f!!<(! F-[F=A] | %13
 [FB]2!<)!!>(! [B,F]2!>)![K:bass] x2 |!p! x6 | x6 | (C>B, x) z [C,,C,]!<(![E,A,]!<)! | %17
 (A,>!>(!G,)!>)! x x x x | [G,,,G,,]2 [B,,E,]2 [_D,,_D,]2 | %19
 [C,,C,][E,,E,] [A,,A,][C,,C,] [B,,,B,,][E,,E,] | ([=A,,,=A,,]C, F,2) [F,,,F,,]2 | %21
!>(! [B,,,B,,]2!>)! z [_D,F,B,]!<(! [F,B,_D]!<)![B,DF] |!mf! [_DFB]2!>(! [CEA]2 [B,D_G-]2!>)! | %23
 (GF) z2[K:bass] [F,=A,C]2 |"^dim." (_G2 F2 E2-) | (E_D)"^rit." x2!pp! [E,F,_C]2- | %26
 [E,F,C]2 .[E,F,]2 z2 | z!p! (=D,- [D,F,]2) x2 |!mf! [C,,C,](^F,,/4G,,/4C,/4E,/4 G,2 G,,2) | %29
 [E,,,E,,]2"^cresc." z2 [C,,C,]2 | [F,,,F,,] (=B,,/4C,/4F,/4A,/4- [A,C]3) z | %31
!f! ([F,,,F,,]2 [G,,,G,,]2) z G,, | [C,,C,]2- [C,,C,] z C,2 | [F,,,F,,]4 F,,2 | %34
 ([B,,,B,,]/>F,,/=A,,/4B,,/4D,/4F,/4)!f! (D>_D!<(! C>_C) | F2!<)! F2 [G,E]2 | %36
!f! ([_G,,,_G,,]/_D,/4_G,/4"^allargando" z z2) [G,,,G,,]2 | [_C,,_C,]2 z2!p! E,_D, | =C,2 z2 x2 | %39
 x6 |!<(! [G,,,G,,]2 ([A,,,A,,]2!<)!!>)!!>(! [_B,,,_B,,]2) | %41
!p! [E,,,E,,] (G,2 E,"^cresc." B,,E,,-) | [E,,,E,,] (A,2 F, B,,2) | %43
!f! .E,,,!>(!.E,,.B,,.G, .B,!>)![K:treble].G | e4 z2 |] %45
V:5
 x6 | x6 | x6 | x6 | x6 | x6 | x6 | x6 | x6 | x6 | x6 | x6 | B,,,3 x[K:treble] C>_C | %13
 _B,>=A, _A,2[K:bass] ([B,,,B,,]2 | [=B,,,=B,,]2) z2 [G,,G,]2 | [C,,C,]2!<(! z2 z!<)! G, | %16
 [_D,-F,]2 [D,G,] x x x | [B,,_D,]2 [B,,,B,,]2 [A,,,A,,][F,_D] | x6 | x6 | x6 | x6 | x6 | %23
 [=A,C]2 x2[K:bass] x2 | [B,_D]2 [A,_C]2 [_G,C-]2 | [F,C]2 [_D,,_D,]2 z2 | [A,,,A,,]2 z2 x2 | %27
 x (F,, G,,2) [G,,,G,,]2 | x6 | x6 | x6 | x6 | x6 | x6 | x4 F2 | (B,>=A, [_A,B,]2) _CB, | x6 | %37
 x2 x2 (E,,2 | F,,2) x2 F,,2 | B,,2 z2 [F,,,F,,]2 | x6 | x6 | x6 | E,,,2 x2 x2[K:treble] | x6 |] %45

